src/icons/svg/diamond.svg

<?xml version="1.0"?><svg xmlns="http://www.w3.org/2000/svg" width="40" height="40" viewBox="0 0 40 40"><path  d="m4.1 17.5l12.1 12.9-5.8-12.9h-6.3z m15.8 15l6.7-15h-13.5z m-9.5-17.5l4-7.4h-5.1l-5.6 7.4h6.7z m13.1 15.4l12.1-12.9h-6.2z m-10.2-15.4h13.2l-4-7.4h-5.3z m16 0h6.7l-5.6-7.4h-5.1z m2.7-9.4l7.5 9.9q0.3 0.4 0.3 0.8t-0.4 0.8l-18.6 19.9q-0.4 0.4-0.9 0.4t-0.9-0.4l-18.7-19.9q-0.3-0.3-0.3-0.8t0.3-0.8l7.4-9.9q0.4-0.5 1-0.5h22.4q0.6 0 0.9 0.5z"></path></svg>

<svg xmlns="http://www.w3.org/2000/svg" width="40" height="40" viewBox="0 0 40 40"><path d="M4.1 17.5l12.1 12.9-5.8-12.9H4.1zm15.8 15l6.7-15H13.1zM10.4 15l4-7.4H9.3L3.7 15h6.7zm13.1 15.4l12.1-12.9h-6.2zM13.3 15h13.2l-4-7.4h-5.3zm16 0H36l-5.6-7.4h-5.1zM32 5.6l7.5 9.9q.3.4.3.8t-.4.8L20.8 37q-.4.4-.9.4T19 37L.3 17.1q-.3-.3-.3-.8t.3-.8l7.4-9.9q.4-.5 1-.5h22.4q.6 0 .9.5z"/></svg>
